site/components/footer/SVG/github.svg

<?xml version="1.0" encoding="UTF-8" standalone="no"?>
<svg width="21px" height="20px" viewBox="0 0 21 20" version="1.1" xmlns="http://www.w3.org/2000/svg" xmlns:xlink="http://www.w3.org/1999/xlink">
    <!-- Generator: sketchtool 39.1 (31720) - http://www.bohemiancoding.com/sketch -->
    <title>Github</title>
    <desc>Github logo</desc>
    <defs>
        <polygon id="path-1" points="0.000316804408 19.859125 20.6423416 19.859125 20.6423416 0 0.000316804408 0"></polygon>
    </defs>
    <g id="Symbols" stroke="none" stroke-width="1" fill="none" fill-rule="evenodd">
        <g id="Footer" transform="translate(-361.000000, -163.000000)">
            <g id="Github" transform="translate(361.000000, 163.000000)">
                <g>
                    <mask id="mask-2" fill="white">
                        <use xlink:href="#path-1"></use>
                    </mask>
                    <g id="Clip-2"></g>
                    <path d="M10.3205372,0 C4.6212259,0 0.000316804408,4.558125 0.000316804408,10.18125 C0.000316804408,14.679375 2.95736915,18.495 7.05871901,19.841875 C7.57511019,19.935 7.76329201,19.620625 7.76329201,19.350625 C7.76329201,19.109375 7.75442149,18.46875 7.74935262,17.619375 C4.87847107,18.234375 4.27274105,16.254375 4.27274105,16.254375 C3.80323691,15.07875 3.1265427,14.765 3.1265427,14.765 C2.18943526,14.13375 3.19750689,14.14625 3.19750689,14.14625 C4.2334573,14.218125 4.77836088,15.195625 4.77836088,15.195625 C5.69899449,16.75125 7.19431129,16.301875 7.78230028,16.041875 C7.87607438,15.38375 8.14219008,14.935 8.43745179,14.680625 C6.14568871,14.42375 3.73607438,13.55 3.73607438,9.64875 C3.73607438,8.5375 4.13841598,7.62875 4.79863636,6.916875 C4.69219008,6.659375 4.33800275,5.624375 4.89938017,4.2225 C4.89938017,4.2225 5.76615702,3.94875 7.73794766,5.26625 C8.56100551,5.04 9.4442562,4.9275 10.3218044,4.92375 C11.1980854,4.9275 12.0813361,5.04 12.9056612,5.26625 C14.8761846,3.94875 15.7410606,4.2225 15.7410606,4.2225 C16.3043388,5.624375 15.9501515,6.659375 15.8437052,6.916875 C16.5051928,7.62875 16.905,8.5375 16.905,9.64875 C16.905,13.56 14.491584,14.420625 12.1922176,14.6725 C12.5628788,14.986875 12.892989,15.608125 12.892989,16.558125 C12.892989,17.91875 12.8803168,19.016875 12.8803168,19.350625 C12.8803168,19.623125 13.0659642,19.94 13.5899587,19.840625 C17.6881405,18.49125 20.6426584,14.678125 20.6426584,10.18125 C20.6426584,4.558125 16.0211157,0 10.3205372,0" id="Fill-1" fill="#FEFEFE" mask="url(#mask-2)"></path>
                </g>
            </g>
        </g>
    </g>
</svg>

<svg width="21" height="20" viewBox="0 0 21 20" xmlns="http://www.w3.org/2000/svg" xmlns:xlink="http://www.w3.org/1999/xlink"><defs><path id="a" d="M0 19.86h20.642V0H0z"/></defs><g fill="none" fill-rule="evenodd"><mask id="b" fill="#fff"><use xlink:href="#a"/></mask><path d="M10.32 0C4.622 0 0 4.558 0 10.181c0 4.498 2.957 8.314 7.059 9.66.516.094.704-.22.704-.49 0-.242-.009-.882-.014-1.732-2.87.615-3.476-1.365-3.476-1.365-.47-1.175-1.146-1.489-1.146-1.489-.938-.631.07-.619.07-.619 1.036.072 1.581 1.05 1.581 1.05.921 1.555 2.416 1.106 3.004.846.094-.658.36-1.107.655-1.361-2.291-.257-4.7-1.131-4.7-5.032 0-1.111.401-2.02 1.062-2.732-.107-.258-.461-1.293.1-2.694 0 0 .867-.274 2.839 1.043a9.986 9.986 0 0 1 2.584-.342 10 10 0 0 1 2.584.342c1.97-1.317 2.835-1.043 2.835-1.043.563 1.401.21 2.436.103 2.694.661.712 1.061 1.62 1.061 2.732 0 3.911-2.413 4.772-4.713 5.024.37.314.701.935.701 1.885 0 1.36-.013 2.459-.013 2.793 0 .272.186.589.71.49 4.098-1.35 7.053-5.163 7.053-9.66C20.643 4.558 16.02 0 10.32 0" fill="#FEFEFE" mask="url(#b)"/></g></svg>
